public/logo.svg

<?xml version="1.0" encoding="UTF-8" standalone="no"?>
<svg
   width="1024"
   height="1024"
   version="1.1"
   id="svg3"
   sodipodi:docname="logo.svg"
   inkscape:version="1.4 (e7c3feb100, 2024-10-09)"
   inkscape:export-filename="logo.svg"
   inkscape:export-xdpi="96"
   inkscape:export-ydpi="96"
   xmlns:inkscape="http://www.inkscape.org/namespaces/inkscape"
   xmlns:sodipodi="http://sodipodi.sourceforge.net/DTD/sodipodi-0.dtd"
   xmlns="http://www.w3.org/2000/svg"
   xmlns:svg="http://www.w3.org/2000/svg">
   <defs
      id="defs3" />
   <sodipodi:namedview
      id="namedview3"
      pagecolor="#ffffff"
      bordercolor="#000000"
      borderopacity="0.25"
      inkscape:showpageshadow="2"
      inkscape:pageopacity="0.0"
      inkscape:pagecheckerboard="0"
      inkscape:deskcolor="#d1d1d1"
      showgrid="true"
      inkscape:zoom="0.38117475"
      inkscape:cx="596.83912"
      inkscape:cy="564.04576"
      inkscape:window-width="1366"
      inkscape:window-height="754"
      inkscape:window-x="0"
      inkscape:window-y="0"
      inkscape:window-maximized="1"
      inkscape:current-layer="svg3">
      <inkscape:grid
         id="grid3"
         units="px"
         originx="0"
         originy="0"
         spacingx="1"
         spacingy="1"
         empcolor="#0099e5"
         empopacity="0.30196078"
         color="#0099e5"
         opacity="0.14901961"
         empspacing="5"
         enabled="true"
         visible="true" />
   </sodipodi:namedview>
   <g
      id="g3"
      transform="matrix(1.314562,0,0,1.314562,-160.96157,-160.74343)">
      <path
         d="m 613.329,320.678 c 11.185,-1.995 39.106,1.355 50.696,3.653 48.837,9.683 93.004,41.965 120.357,83.073 26.915,40.449 38.018,92.461 28.397,140.28 -9.919,51.242 -40.162,96.286 -83.837,124.864 -28.228,18.917 -61.06,29.821 -94.997,31.549 -8.953,0.389 -18.023,0.271 -26.829,-1.516 -6.247,-1.875 -11.905,-4.992 -16.553,-9.608 -14.277,-14.18 -11.651,-34.436 -11.348,-52.819 0.112,-10.331 0.165,-20.663 0.162,-30.996 -5.535,0.576 -11.318,0.322 -16.889,0.352 -7.319,0.039 -14.7,0.245 -22.013,-0.031 -5.779,-0.218 -12.182,-1.133 -16.212,-5.737 -2.39,-2.73 -3.144,-6.215 -2.83,-9.766 0.29,-3.291 1.704,-6.198 4.253,-8.321 2.742,-2.283 6.187,-3.443 9.675,-3.973 6.127,-0.931 13.044,-0.288 19.25,-0.254 8.226,0.045 16.754,-0.374 24.933,0.498 -0.488,-18.693 -0.658,-37.393 -0.512,-56.092 -0.347,0.073 -1.023,0.229 -1.416,0.275 -3.71,0.435 -7.992,-0.14 -11.751,-0.155 -10.283,-0.043 -21.539,0.905 -31.689,-0.688 -3.011,-0.473 -6.2,-1.212 -8.525,-3.299 -3.055,-2.742 -4.419,-7.515 -4.455,-11.505 -0.028,-3.008 1.15,-5.761 3.363,-7.798 2.312,-2.127 5.345,-3.284 8.367,-3.965 11.294,-2.546 33.722,-0.591 46.12,-0.346 0.958,-17.87 0.045,-38.603 -0.011,-56.786 -7.657,-0.09 -15.315,-0.069 -22.972,0.064 -6.988,0.169 -14.373,0.962 -21.293,-0.277 -3.435,-0.615 -6.95,-1.859 -9.553,-4.261 -2.63,-2.427 -3.785,-5.624 -3.813,-9.16 -0.029,-3.533 0.995,-6.927 3.582,-9.433 2.124,-2.057 4.934,-3.315 7.796,-3.951 8.54,-1.898 36.115,-0.448 46.303,-0.078 0.407,-12.311 0.116,-24.786 0.009,-37.108 -0.076,-8.801 -0.597,-17.98 1.104,-26.649 1.166,-5.938 3.486,-11.689 7.175,-16.515 6.588,-8.619 15.492,-12.135 25.956,-13.521 z m 84.807,110.612 c 4.825,21.208 9.431,45.631 9.099,67.443 9.459,-0.543 19.039,-0.237 28.515,-0.225 l 33.314,0.117 c 6.593,0.031 13.368,-0.227 19.926,0.397 -3.854,-27.525 -9.992,-47.475 -24.145,-71.449 -2.375,-4.023 -5.103,-9.674 -8.803,-12.527 -0.823,-0.635 -1.494,-0.695 -2.483,-0.601 -17.975,7.399 -36.245,13.485 -55.423,16.845 z m 69.084,161.722 c 11.069,-19.977 20.726,-43.767 21.42,-66.86 l -53.571,-0.204 c -9.153,0 -18.451,-0.279 -27.586,0.212 -0.477,22.429 -3.476,44.253 -7.549,66.277 19.629,4.101 38.945,8.248 57.819,15.164 3.364,-4.735 6.402,-9.658 9.467,-14.589 z M 605.845,414.688 c 12.06,-0.476 36.927,-0.914 47.755,-4.046 3.266,-0.482 6.539,-0.913 9.819,-1.294 -7.195,-21.941 -21.877,-47.152 -43.156,-58.075 -2.965,-1.522 -5.968,-2.798 -9.349,-2.813 -3.378,2.664 -4.171,5.767 -4.642,9.944 -0.579,5.132 -0.438,10.448 -0.496,15.612 -0.151,13.542 0.422,27.155 0.069,40.672 z m 66.789,171.963 c 5.076,-20.014 6.637,-40.11 7.43,-60.67 -18.602,-0.195 -37.205,-0.274 -55.808,-0.235 -6.022,0.036 -12.087,-0.071 -18.101,0.242 -0.198,18.656 0.436,37.441 -0.178,56.073 19.272,-0.49 38.006,1.821 57.14,3.536 z m -56.259,-88.148 42.348,-10e-4 c 6.858,0.002 14.647,-0.67 21.41,0.344 -1.572,-12.08 -3.324,-53.494 -9.636,-61.916 l -1.086,-0.273 c -21.096,2.406 -41.847,4.503 -63.09,4.976 l -0.229,56.804 z m 122.109,131.559 c -10.129,-3.162 -20.314,-5.702 -30.658,-8.065 -5.254,-1.2 -11.238,-1.901 -16.286,-3.709 -5.405,20.257 -16.522,37.067 -28.528,53.884 11.972,-3.549 23.774,-7.442 34.812,-13.384 14.808,-7.662 28.491,-17.329 40.66,-28.726 z m -48.021,-224.73 c 11.862,-2.989 23.639,-5.733 35.282,-9.534 3.243,-1.165 6.639,-2.205 9.784,-3.6 -3.255,-3.759 -7.558,-6.995 -11.484,-10.049 -18.167,-14.383 -39.098,-24.875 -61.491,-30.825 13.265,15.516 23.247,34.053 27.909,54.008 z m -84.696,203.835 c -0.5,6.125 -0.248,12.397 -0.243,18.546 0.011,14.004 0.363,28.094 -0.03,42.087 2.443,2.975 4.341,5.256 8.47,5.571 6.803,0.519 13.48,-5.397 18.167,-9.704 3.872,-3.513 7.437,-7.35 10.657,-11.47 11.533,-14.855 14.35,-24.484 22.142,-40.296 -13.088,-2.856 -27.154,-3.933 -40.53,-4.312 -6.151,-0.174 -12.532,0.26 -18.633,-0.422 z"
         id="path1" />
      <path
         d="m 392.444,303.707 c 13.845,-1.866 30.234,2.769 42.293,9.38 17.371,9.524 32.018,26.651 37.665,45.77 9.264,0.724 17.318,2.185 25.743,6.213 -0.894,23.714 -0.127,47.715 -0.202,71.462 -2.202,-3.331 -4.787,-6.519 -7.39,-9.549 -19.405,-22.582 -51.559,-40.407 -81.637,-42.638 0.71,-8.599 0.446,-17.247 0.534,-25.866 0.067,-6.62 0.738,-13.75 -0.254,-20.314 -0.419,-2.774 -1.226,-5.546 -2.897,-7.839 -1.902,-2.61 -4.612,-4.081 -7.804,-4.443 -3.637,-0.413 -8.088,0.205 -10.906,2.717 -1.807,1.61 -2.923,3.784 -3.47,6.118 -1.215,5.179 -0.777,10.839 -0.72,16.125 0.12,11.08 0.921,22.38 0.399,33.433 -10.203,1.561 -20.122,3.685 -29.85,7.201 -25.36,9.163 -48.131,27.08 -62.101,50.293 -3.76,6.249 -6.36,12.84 -9.537,19.361 -0.669,1.374 -1.143,2.592 -2.622,3.19 -5.695,2.305 -26.286,-1.981 -36.537,1.744 -3.193,1.16 -5.792,3.198 -7.153,6.368 -1.286,2.994 -1.569,6.894 -0.158,9.893 1.347,2.862 4.093,4.699 6.997,5.735 2.321,0.828 4.817,1.211 7.269,1.388 7.87,0.569 16.03,0.045 23.93,0.014 5.65,-0.023 11.484,0.52 17.098,-0.15 2.164,-0.259 3.997,-1.127 5.943,-2.049 3.886,-5.564 5.378,-11.779 7.741,-18.038 4.655,-12.332 12.893,-23.576 22.13,-32.874 18.475,-18.384 43.53,-28.624 69.594,-28.443 27.301,0.02 52.253,10.669 71.459,29.992 17.962,18.27 27.909,42.94 27.644,68.559 -0.426,25.212 -10.858,49.221 -28.998,66.737 -19.023,18.436 -44.581,28.575 -71.069,28.195 -34.693,-0.584 -65.858,-18.153 -83.326,-48.331 -4.021,-6.947 -6.222,-16.911 -11.946,-22.519 -6.582,-6.449 -32.227,-3.633 -41.681,-3.553 -5.978,-0.112 -13.69,-0.721 -18.915,2.688 -3.455,2.254 -4.457,5.058 -5.359,8.894 0.768,3.42 1.515,6.364 4.086,8.922 2.099,2.089 4.695,3.389 7.571,4.033 9.533,2.132 27.964,0.05 38.559,0.106 5.183,12.805 13.089,24.052 22.221,34.342 19.173,21.603 48.564,36.83 77.587,38.657 -0.544,11.989 -0.351,24.052 -0.374,36.052 -0.015,7.512 -0.622,15.58 0.456,23.001 0.437,3.004 1.206,6.07 3.264,8.394 2.074,2.343 5.181,3.596 8.266,3.781 2.949,0.176 7.07,-0.682 9.297,-2.756 2.009,-1.872 3.111,-4.796 3.624,-7.435 1.133,-5.828 0.742,-12.179 0.786,-18.097 0.106,-14.288 -0.401,-28.572 -0.23,-42.855 l 0.414,-0.046 0.69,-0.084 c 25.628,-3.127 49.632,-14.206 68.637,-31.682 6.714,-6.161 12.669,-13.016 18.693,-19.835 0.224,17.242 0.109,34.494 0.14,51.737 0.016,8.991 0.615,18.182 0.074,27.139 -7.622,4.533 -14.616,7.162 -23.338,8.685 -0.762,2.588 -1.653,5.136 -2.669,7.635 -8.103,20.01 -24.648,37.405 -44.529,45.874 -19.655,8.145 -41.744,8.126 -61.384,-0.053 -24.797,-10.049 -37.315,-28.083 -47.351,-51.883 -23.386,-1.889 -41.861,-7.55 -58.052,-25.464 -16.257,-17.988 -20.546,-38.538 -19.26,-62.174 -6.177,-4.437 -11.843,-9.023 -16.746,-14.876 -13.421,-16.021 -18.72,-36.511 -16.705,-57.153 2.181,-22.353 13.8,-39.747 30.874,-53.727 -1.692,-8.411 -2.004,-17.653 -0.855,-26.157 2.791,-19.957 13.464,-37.963 29.632,-49.992 14.835,-11.185 33.469,-16.099 51.89,-13.684 2.924,-9.365 8.097,-17.986 14.402,-25.466 15.049,-17.852 35.288,-27.776 58.423,-29.803 z m 12.431,219.665 7.374,0.161 c 0.108,0.16 0.217,0.319 0.323,0.48 5.106,7.761 2.849,21.091 14.314,23.288 3.777,0.723 11.367,0.974 14.523,-1.403 0.809,-0.609 1.61,-1.674 1.77,-2.7 0.342,-2.199 -1.099,-5.869 -1.746,-7.983 -4.427,-14.462 -9.823,-28.699 -14.604,-43.059 -4.763,-14.31 -8.999,-29.051 -14.351,-43.137 -0.971,-2.558 -2.209,-4.916 -3.584,-7.277 -5.326,-2.679 -15.606,-1.322 -21.656,-1.076 -2.714,0.339 -4.391,1.006 -6.131,3.188 -1.609,2.018 -2.684,4.408 -3.531,6.83 -3.212,9.179 -5.006,18.814 -7.733,28.136 -3.05,10.427 -19.884,58.052 -19.253,65.217 0.124,1.409 0.502,1.97 1.428,2.998 4.086,1.538 12.574,1.797 16.508,-0.107 2.438,-1.181 3.9,-3.281 4.668,-5.831 1.416,-4.706 0.729,-13.252 5.279,-16.107 6.009,-3.77 19.411,-1.914 26.402,-1.618 z"
         id="path2" />
      <path
         d="m 394.485,458.752 c 4.273,5.65 11.615,38.298 13.309,47.144 l -10.669,0.003 c -4.777,0.161 -9.478,0.286 -14.255,-0.021 0.539,-10.363 7.755,-37.59 11.615,-47.126 z"
         id="path3" />
   </g>
</svg>

<?xml version="1.0" encoding="utf-8" ?>
<svg xmlns="http://www.w3.org/2000/svg" xmlns:xlink="http://www.w3.org/1999/xlink" width="1024" height="1024">
	<path d="M613.329 320.678C624.514 318.683 652.435 322.033 664.025 324.331C712.862 334.014 757.029 366.296 784.382 407.404C811.297 447.853 822.4 499.865 812.779 547.684C802.86 598.926 772.617 643.97 728.942 672.548C700.714 691.465 667.882 702.369 633.945 704.097C624.992 704.486 615.922 704.368 607.116 702.581C600.869 700.706 595.211 697.589 590.563 692.973C576.286 678.793 578.912 658.537 579.215 640.154C579.327 629.823 579.38 619.491 579.377 609.158C573.842 609.734 568.059 609.48 562.488 609.51C555.169 609.549 547.788 609.755 540.475 609.479C534.696 609.261 528.293 608.346 524.263 603.742C521.873 601.012 521.119 597.527 521.433 593.976C521.723 590.685 523.137 587.778 525.686 585.655C528.428 583.372 531.873 582.212 535.361 581.682C541.488 580.751 548.405 581.394 554.611 581.428C562.837 581.473 571.365 581.054 579.544 581.926C579.056 563.233 578.886 544.533 579.032 525.834C578.685 525.907 578.009 526.063 577.616 526.109C573.906 526.544 569.624 525.969 565.865 525.954C555.582 525.911 544.326 526.859 534.176 525.266C531.165 524.793 527.976 524.054 525.651 521.967C522.596 519.225 521.232 514.452 521.196 510.462C521.168 507.454 522.346 504.701 524.559 502.664C526.871 500.537 529.904 499.38 532.926 498.699C544.22 496.153 566.648 498.108 579.046 498.353C580.004 480.483 579.091 459.75 579.035 441.567C571.378 441.477 563.72 441.498 556.063 441.631C549.075 441.8 541.69 442.593 534.77 441.354C531.335 440.739 527.82 439.495 525.217 437.093C522.587 434.666 521.432 431.469 521.404 427.933C521.375 424.4 522.399 421.006 524.986 418.5C527.11 416.443 529.92 415.185 532.782 414.549C541.322 412.651 568.897 414.101 579.085 414.471C579.492 402.16 579.201 389.685 579.094 377.363C579.018 368.562 578.497 359.383 580.198 350.714C581.364 344.776 583.684 339.025 587.373 334.199C593.961 325.58 602.865 322.064 613.329 320.678ZM698.136 431.29C702.961 452.498 707.567 476.921 707.235 498.733C716.694 498.19 726.274 498.496 735.75 498.508L769.064 498.625C775.657 498.656 782.432 498.398 788.99 499.022C785.136 471.497 778.998 451.547 764.845 427.573C762.47 423.55 759.742 417.899 756.042 415.046C755.219 414.411 754.548 414.351 753.559 414.445C735.584 421.844 717.314 427.93 698.136 431.29ZM767.22 593.012C778.289 573.035 787.946 549.245 788.64 526.152L735.069 525.948C725.916 525.948 716.618 525.669 707.483 526.16C707.006 548.589 704.007 570.413 699.934 592.437C719.563 596.538 738.879 600.685 757.753 607.601C761.117 602.866 764.155 597.943 767.22 593.012ZM605.845 414.688C617.905 414.212 642.772 413.774 653.6 410.642C656.866 410.16 660.139 409.729 663.419 409.348C656.224 387.407 641.542 362.196 620.263 351.273C617.298 349.751 614.295 348.475 610.914 348.46C607.536 351.124 606.743 354.227 606.272 358.404C605.693 363.536 605.834 368.852 605.776 374.016C605.625 387.558 606.198 401.171 605.845 414.688ZM672.634 586.651C677.71 566.637 679.271 546.541 680.064 525.981C661.462 525.786 642.859 525.707 624.256 525.746C618.234 525.782 612.169 525.675 606.155 525.988C605.957 544.644 606.591 563.429 605.977 582.061C625.249 581.571 643.983 583.882 663.117 585.597L672.634 586.651ZM616.375 498.503L658.723 498.502C665.581 498.504 673.37 497.832 680.133 498.846C678.561 486.766 676.809 445.352 670.497 436.93L669.411 436.657C648.315 439.063 627.564 441.16 606.321 441.633L606.092 498.437L616.375 498.503ZM738.484 630.062C728.355 626.9 718.17 624.36 707.826 621.997C702.572 620.797 696.588 620.096 691.54 618.288C686.135 638.545 675.018 655.355 663.012 672.172C674.984 668.623 686.786 664.73 697.824 658.788C712.632 651.126 726.315 641.459 738.484 630.062ZM690.463 405.332C702.325 402.343 714.102 399.599 725.745 395.798C728.988 394.633 732.384 393.593 735.529 392.198C732.274 388.439 727.971 385.203 724.045 382.149C705.878 367.766 684.947 357.274 662.554 351.324C675.819 366.84 685.801 385.377 690.463 405.332ZM605.767 609.167C605.267 615.292 605.519 621.564 605.524 627.713C605.535 641.717 605.887 655.807 605.494 669.8C607.937 672.775 609.835 675.056 613.964 675.371C620.767 675.89 627.444 669.974 632.131 665.667C636.003 662.154 639.568 658.317 642.788 654.197C654.321 639.342 657.138 629.713 664.93 613.901C651.842 611.045 637.776 609.968 624.4 609.589C618.249 609.415 611.868 609.849 605.767 609.167Z"/>
	<path d="M392.444 303.707C406.289 301.841 422.678 306.476 434.737 313.087C452.108 322.611 466.755 339.738 472.402 358.857C481.666 359.581 489.72 361.042 498.145 365.07C497.251 388.784 498.018 412.785 497.943 436.532C495.741 433.201 493.156 430.013 490.553 426.983C471.148 404.401 438.994 386.576 408.916 384.345C409.626 375.746 409.362 367.098 409.45 358.479C409.517 351.859 410.188 344.729 409.196 338.165C408.777 335.391 407.97 332.619 406.299 330.326C404.397 327.716 401.687 326.245 398.495 325.883C394.858 325.47 390.407 326.088 387.589 328.6C385.782 330.21 384.666 332.384 384.119 334.718C382.904 339.897 383.342 345.557 383.399 350.843C383.519 361.923 384.32 373.223 383.798 384.276C373.595 385.837 363.676 387.961 353.948 391.477C328.588 400.64 305.817 418.557 291.847 441.77C288.087 448.019 285.487 454.61 282.31 461.131C281.641 462.505 281.167 463.723 279.688 464.321C273.993 466.626 253.402 462.34 243.151 466.065C239.958 467.225 237.359 469.263 235.998 472.433C234.712 475.427 234.429 479.327 235.84 482.326C237.187 485.188 239.933 487.025 242.837 488.061C245.158 488.889 247.654 489.272 250.106 489.449C257.976 490.018 266.136 489.494 274.036 489.463C279.686 489.44 285.52 489.983 291.134 489.313C293.298 489.054 295.131 488.186 297.077 487.264C300.963 481.7 302.455 475.485 304.818 469.226C309.473 456.894 317.711 445.65 326.948 436.352C345.423 417.968 370.478 407.728 396.542 407.909C423.843 407.929 448.795 418.578 468.001 437.901C485.963 456.171 495.91 480.841 495.645 506.46C495.219 531.672 484.787 555.681 466.647 573.197C447.624 591.633 422.066 601.772 395.578 601.392C360.885 600.808 329.72 583.239 312.252 553.061C308.231 546.114 306.03 536.15 300.306 530.542C293.724 524.093 268.079 526.909 258.625 526.989C252.647 526.877 244.935 526.268 239.71 529.677C236.255 531.931 235.253 534.735 234.351 538.571C235.119 541.991 235.866 544.935 238.437 547.493C240.536 549.582 243.132 550.882 246.008 551.526C255.541 553.658 273.972 551.576 284.567 551.632C289.75 564.437 297.656 575.684 306.788 585.974C325.961 607.577 355.352 622.804 384.375 624.631C383.831 636.62 384.024 648.683 384.001 660.683C383.986 668.195 383.379 676.263 384.457 683.684C384.894 686.688 385.663 689.754 387.721 692.078C389.795 694.421 392.902 695.674 395.987 695.859C398.936 696.035 403.057 695.177 405.284 693.103C407.293 691.231 408.395 688.307 408.908 685.668C410.041 679.84 409.65 673.489 409.694 667.571C409.8 653.283 409.293 638.999 409.464 624.716L409.878 624.67L410.568 624.586C436.196 621.459 460.2 610.38 479.205 592.904C485.919 586.743 491.874 579.888 497.898 573.069C498.122 590.311 498.007 607.563 498.038 624.806C498.054 633.797 498.653 642.988 498.112 651.945C490.49 656.478 483.496 659.107 474.774 660.63C474.012 663.218 473.121 665.766 472.105 668.265C464.002 688.275 447.457 705.67 427.576 714.139C407.921 722.284 385.832 722.265 366.192 714.086C341.395 704.037 328.877 686.003 318.841 662.203C295.455 660.314 276.98 654.653 260.789 636.739C244.532 618.751 240.243 598.201 241.529 574.565C235.352 570.128 229.686 565.542 224.783 559.689C211.362 543.668 206.063 523.178 208.078 502.536C210.259 480.183 221.878 462.789 238.952 448.809C237.26 440.398 236.948 431.156 238.097 422.652C240.888 402.695 251.561 384.689 267.729 372.66C282.564 361.475 301.198 356.561 319.619 358.976C322.543 349.611 327.716 340.99 334.021 333.51C349.07 315.658 369.309 305.734 392.444 303.707ZM404.875 523.372L412.249 523.533C412.357 523.693 412.466 523.852 412.572 524.013C417.678 531.774 415.421 545.104 426.886 547.301C430.663 548.024 438.253 548.275 441.409 545.898C442.218 545.289 443.019 544.224 443.179 543.198C443.521 540.999 442.08 537.329 441.433 535.215C437.006 520.753 431.61 506.516 426.829 492.156C422.066 477.846 417.83 463.105 412.478 449.019C411.507 446.461 410.269 444.103 408.894 441.742C403.568 439.063 393.288 440.42 387.238 440.666C384.524 441.005 382.847 441.672 381.107 443.854C379.498 445.872 378.423 448.262 377.576 450.684C374.364 459.863 372.57 469.498 369.843 478.82C366.793 489.247 349.959 536.872 350.59 544.037C350.714 545.446 351.092 546.007 352.018 547.035C356.104 548.573 364.592 548.832 368.526 546.928C370.964 545.747 372.426 543.647 373.194 541.097C374.61 536.391 373.923 527.845 378.473 524.99C384.482 521.22 397.884 523.076 404.875 523.372Z"/>
	<path d="M394.485 458.752C398.758 464.402 406.1 497.05 407.794 505.896L397.125 505.899C392.348 506.06 387.647 506.185 382.87 505.878C383.409 495.515 390.625 468.288 394.485 458.752Z"/>
</svg>
